lib/flags/ir-iran.svg

<svg xmlns="http://www.w3.org/2000/svg" fill="none" aria-hidden="true" viewBox="0 0 42 30"><g id="Country=IR - Iran, Size=sm (36x24)" filter="url(#filter0_dd_91_27354)"><g clip-path="url(#clip0_91_27354)"><g id="flag"><mask id="mask0_91_27354" width="36" height="24" x="3" y="2" maskUnits="userSpaceOnUse" style="mask-type:alpha"><rect id="mask" width="36" height="24" x="3" y="2" fill="white"/></mask><g mask="url(#mask0_91_27354)"><g id="contents"><path id="background" fill="#F7FCFF" fill-rule="evenodd" d="M3 2V26H39V2H3Z" clip-rule="evenodd"/><mask id="mask1_91_27354" width="36" height="24" x="3" y="2" maskUnits="userSpaceOnUse" style="mask-type:alpha"><path id="background_2" fill="white" fill-rule="evenodd" d="M3 2V26H39V2H3Z" clip-rule="evenodd"/></mask><g mask="url(#mask1_91_27354)"><path id="top" fill="#5EAA22" fill-rule="evenodd" d="M3 2V10H39V2H3Z" clip-rule="evenodd"/><path id="bottom" fill="#E31D1C" fill-rule="evenodd" d="M3 18V26H39V18H3Z" clip-rule="evenodd"/><g id="mark"><g id="bottom_2"><path id="Combined Shape" fill="#F7FCFF" fill-rule="evenodd" d="M8.17574 18.3921V19.026H5.55363V18.3921H8.17574ZM3.63641 19.9843H3.40357V19.7311H3.9151V20.6182H4.56706V20.625H5.19869V18.7834H4.79512V19.9911H4.73277V18.6874H4.3292V19.9843H4.31867V19.7311V18.6874H3.9151V19.0972H3V20.6182H3.20178H3.63641V19.9843ZM5.32484 20.3396H5.72841V19.7112H6.17841V20.6248H7.4445V19.0783H6.79523V19.7122H7.04093V19.991H6.58198V19.0773H5.32484V20.3396ZM7.9033 19.9843H8.13614V20.6182H7.70151H7.49973V19.0972H8.41482V18.6874H8.81839V19.7311V19.9843H8.82893V18.6874H9.2325V19.9911H9.29484V18.7834H9.69841V20.625H9.06679V20.6182H8.41482V19.7311H7.9033V19.9843ZM12.6755 18.3921V19.026H10.0534V18.3921H12.6755ZM9.82457 20.3396H10.2281V19.7112H10.6781V20.6248H11.9442V19.0783H11.295V19.7122H11.5407V19.991H11.0817V19.0773H9.82457V20.3396ZM12.4834 19.9843H12.7162V20.6182H12.2816H12.0798V19.0972H12.9949V18.6874H13.3985V19.7311V19.9843H13.409V18.6874H13.8126V19.9911H13.8749V18.7834H14.2785V20.625H13.6469V20.6182H12.9949V19.7311H12.4834V19.9843ZM17.2555 18.3921V19.026H14.6334V18.3921H17.2555ZM14.4046 20.3396H14.8082V19.7112H15.2582V20.6248H16.5243V19.0783H15.875V19.7122H16.1207V19.991H15.6618V19.0773H14.4046V20.3396ZM16.9831 19.9843H17.2159V20.6182H16.7813H16.5795V19.0972H17.4946V18.6874H17.8982V19.7311V19.9843H17.9087V18.6874H18.3123V19.9911H18.3746V18.7834H18.7782V20.625H18.1466V20.6182H17.4946V19.7311H16.9831V19.9843ZM21.7553 18.3921V19.026H19.1331V18.3921H21.7553ZM18.9044 20.3396H19.3079V19.7112H19.7579V20.6248H21.024V19.0783H20.3747V19.7122H20.6204V19.991H20.1615V19.0773H18.9044V20.3396ZM21.4828 19.9843H21.7157V20.6182H21.281H21.0792V19.0972H21.9943V18.6874H22.3979V19.7311V19.9843H22.4084V18.6874H22.812V19.9911H22.8744V18.7834H23.2779V20.625H22.6463V20.6182H21.9943V19.7311H21.4828V19.9843ZM26.255 18.3921V19.026H23.6329V18.3921H26.255ZM23.4041 20.3396H23.8077V19.7112H24.2577V20.6248H25.5237V19.0783H24.8745V19.7122H25.1202V19.991H24.6612V19.0773H23.4041V20.3396ZM26.0629 19.9843H26.2957V20.6182H25.8611H25.6593V19.0972H26.5744V18.6874H26.978V19.7311V19.9843H26.9885V18.6874H27.3921V19.9911H27.4544V18.7834H27.858V20.625H27.2264V20.6182H26.5744V19.7311H26.0629V19.9843ZM30.8352 18.3921V19.026H28.2131V18.3921H30.8352ZM27.9841 20.3396H28.3877V19.7112H28.8377V20.6248H30.1038V19.0783H29.4545V19.7122H29.7002V19.991H29.2413V19.0773H27.9841V20.3396ZM30.6431 19.9843H30.8759V20.6182H30.4413H30.2395V19.0972H31.1546V18.6874H31.5582V19.7311V19.9843H31.5687V18.6874H31.9723V19.9911H32.0345V18.7834H32.4381V20.625H31.8064V20.6182H31.1546V19.7311H30.6431V19.9843ZM35.4152 18.3921V19.026H32.7931V18.3921H35.4152ZM32.5643 20.3396H32.9679V19.7112H33.4179V20.6248H34.684V19.0783H34.0347V19.7122H34.2804V19.991H33.8215V19.0773H32.5643V20.3396ZM35.2231 19.9843H35.456V20.6182H35.0214H34.8196V19.0972H35.7347V18.6874H36.1382V19.7311V19.9843H36.1488V18.6874H36.5523V19.9911H36.6145V18.7834H37.0181V20.625H36.3865V20.6182H35.7347V19.7311H35.2231V19.9843ZM39.9953 18.3921V19.026H37.3732V18.3921H39.9953ZM37.1444 20.3396H37.548V19.7112H37.998V20.6248H39.2641V19.0783H38.6148V19.7122H38.8605V19.991H38.4015V19.0773H37.1444V20.3396ZM39.7229 19.9843H39.9557V20.6182H39.5211H39.3193V19.0972H40.2344V18.6874H40.638V19.7311V19.9843H40.6485V18.6874H41.0521V19.9911H41.1144V18.7834H41.518V20.625H40.8864V20.6182H40.2344V19.7311H39.7229V19.9843ZM44.495 18.3921V19.026H41.8729V18.3921H44.495ZM41.6441 20.3396H42.0477V19.7112H42.4977V20.6248H43.7638V19.0783H43.1145V19.7122H43.3602V19.991H42.9013V19.0773H41.6441V20.3396ZM44.4636 19.9843H44.6964V20.6182H44.2618H44.06V19.0972H44.9751V18.6874H45.3787V19.7311V19.9843H45.3892V18.6874H45.7928V19.9911H45.8551V18.7834H46.2587V20.625H45.6271V20.6182H44.9751V19.7311H44.4636V19.9843ZM49.2358 18.3921V19.026H46.6137V18.3921H49.2358ZM46.3849 20.3396H46.7884V19.7112H47.2384V20.6248H48.5045V19.0783H47.8553V19.7122H48.101V19.991H47.642V19.0773H46.3849V20.3396Z" clip-rule="evenodd"/></g><g id="top_2"><path id="Combined Shape_2" fill="#F7FCFF" fill-rule="evenodd" d="M3.54539 7.39209V8.02597H0.923279V7.39209H3.54539ZM-0.993957 8.98432H-1.2268V8.73109H-0.715271V9.6182H-0.0632935V9.625H0.568332V7.78342H0.164762V8.99112H0.102402V7.68742H-0.301167V8.98432H-0.311702V8.73109V7.68742H-0.715271V8.09721H-1.63037V9.6182H-1.42859H-0.993957V8.98432ZM0.694489 9.33964H1.09806V8.71119H1.54806V9.62484H2.81415V8.07832H2.16487V8.7122H2.41058V8.99096H1.95163V8.07731H0.694489V9.33964ZM3.27294 8.98433H3.50578V9.61821H3.07115H2.86937V8.09721H3.78447V7.68742H4.18804V8.73109V8.98433H4.19857V7.68742H4.60214V8.99112H4.66449V7.78342H5.06806V9.625H4.43643V9.61821H3.78447V8.73109H3.27294V8.98433ZM8.04511 7.39209V8.02597H5.423V7.39209H8.04511ZM5.19421 9.33964H5.59778V8.71119H6.04778V9.62484H7.31387V8.07832H6.6646V8.7122H6.9103V8.99096H6.45135V8.07731H5.19421V9.33964ZM7.853 8.98433H8.08585V9.61821H7.65122H7.44943V8.09721H8.36453V7.68742H8.7681V8.73109V8.98433H8.77864V7.68742H9.18221V8.99112H9.24455V7.78342H9.64812V9.625H9.01649V9.61821H8.36453V8.73109H7.853V8.98433ZM12.6252 7.39209V8.02597H10.0031V7.39209H12.6252ZM9.77428 9.33964H10.1778V8.71119H10.6278V9.62484H11.8939V8.07832H11.2447V8.7122H11.4904V8.99096H11.0314V8.07731H9.77428V9.33964ZM12.3527 8.98433H12.5856V9.61821H12.1509H11.9492V8.09721H12.8643V7.68742H13.2678V8.73109V8.98433H13.2784V7.68742H13.6819V8.99112H13.7443V7.78342H14.1478V9.625H13.5162V9.61821H12.8643V8.73109H12.3527V8.98433ZM17.1249 7.39209V8.02597H14.5028V7.39209H17.1249ZM14.274 9.33964H14.6776V8.71119H15.1276V9.62484H16.3937V8.07832H15.7444V8.7122H15.9901V8.99096H15.5311V8.07731H14.274V9.33964ZM16.8525 8.98433H17.0853V9.61821H16.6507H16.4489V8.09721H17.364V7.68742H17.7676V8.73109V8.98433H17.7781V7.68742H18.1817V8.99112H18.244V7.78342H18.6476V9.625H18.0159V9.61821H17.364V8.73109H16.8525V8.98433ZM21.6246 7.39209V8.02597H19.0025V7.39209H21.6246ZM18.7737 9.33964H19.1773V8.71119H19.6273V9.62484H20.8934V8.07832H20.2441V8.7122H20.4898V8.99096H20.0309V8.07731H18.7737V9.33964ZM21.4325 8.98433H21.6654V9.61821H21.2307H21.0289V8.09721H21.944V7.68742H22.3476V8.73109V8.98433H22.3582V7.68742H22.7617V8.99112H22.8241V7.78342H23.2276V9.625H22.596V9.61821H21.944V8.73109H21.4325V8.98433ZM26.2048 7.39209V8.02597H23.5827V7.39209H26.2048ZM23.3538 9.33964H23.7574V8.71119H24.2074V9.62484H25.4734V8.07832H24.8242V8.7122H25.0699V8.99096H24.6109V8.07731H23.3538V9.33964ZM26.0127 8.98433H26.2456V9.61821H25.8109H25.6091V8.09721H26.5242V7.68742H26.9278V8.73109V8.98433H26.9384V7.68742H27.3419V8.99112H27.4041V7.78342H27.8077V9.625H27.1761V9.61821H26.5242V8.73109H26.0127V8.98433ZM30.7849 7.39209V8.02597H28.1628V7.39209H30.7849ZM27.934 9.33964H28.3376V8.71119H28.7876V9.62484H30.0536V8.07832H29.4044V8.7122H29.6501V8.99096H29.1911V8.07731H27.934V9.33964ZM30.5928 8.98433H30.8256V9.61821H30.391H30.1892V8.09721H31.1043V7.68742H31.5079V8.73109V8.98433H31.5184V7.68742H31.922V8.99112H31.9842V7.78342H32.3878V9.625H31.7561V9.61821H31.1043V8.73109H30.5928V8.98433ZM35.365 7.39209V8.02597H32.7428V7.39209H35.365ZM32.5141 9.33964H32.9176V8.71119H33.3676V9.62484H34.6337V8.07832H33.9844V8.7122H34.2301V8.99096H33.7712V8.07731H32.5141V9.33964ZM35.0925 8.98433H35.3253V9.61821H34.8907H34.6889V8.09721H35.604V7.68742H36.0076V8.73109V8.98433H36.0181V7.68742H36.4217V8.99112H36.4839V7.78342H36.8875V9.625H36.2559V9.61821H35.604V8.73109H35.0925V8.98433ZM39.8647 7.39209V8.02597H37.2426V7.39209H39.8647ZM37.0138 9.33964H37.4173V8.71119H37.8673V9.62484H39.1334V8.07832H38.4842V8.7122H38.7299V8.99096H38.2709V8.07731H37.0138V9.33964ZM39.8332 8.98433H40.0661V9.61821H39.6315H39.4297V8.09721H40.3448V7.68742H40.7483V8.73109V8.98433H40.7589V7.68742H41.1624V8.99112H41.2248V7.78342H41.6284V9.625H40.9967V9.61821H40.3448V8.73109H39.8332V8.98433ZM44.6054 7.39209V8.02597H41.9833V7.39209H44.6054ZM41.7545 9.33964H42.1581V8.71119H42.6081V9.62484H43.8742V8.07832H43.2249V8.7122H43.4706V8.99096H43.0117V8.07731H41.7545V9.33964Z" clip-rule="evenodd"/></g><path id="Combined Shape_3" fill="#E31D1C" fill-rule="evenodd" d="M19.4324 10.25C19.4324 10.25 19.9131 10.475 20.4052 10.475C20.8972 10.475 21.3923 10.25 21.3923 10.25V10.55C21.3923 10.55 20.8518 10.775 20.3731 10.775C19.8944 10.775 19.4324 10.55 19.4324 10.55V10.25ZM25.1561 13.6925C25.1561 11.9145 22.4114 10.85 22.4114 10.85C22.4114 10.85 23.9993 11.6062 23.9993 13.7161C23.9993 15.826 23.175 16.7397 23.175 16.7397C23.175 16.7397 25.1561 15.4705 25.1561 13.6925ZM15.8887 13.7906C15.8887 12.0126 18.6359 10.85 18.6359 10.85C18.6359 10.85 17.0481 11.6062 17.0481 13.7161C17.0481 15.826 17.8723 16.7397 17.8723 16.7397C17.8723 16.7397 15.8887 15.5686 15.8887 13.7906ZM17.7642 14.1776C17.6595 12.402 19.3212 10.8105 19.3212 10.8105C19.3212 10.8105 18.7164 11.5418 18.8406 13.6488C18.8832 14.3723 19.2038 15.4487 19.6077 16.0832V10.925H21.2952V16.1281C21.6997 15.5353 22.0114 14.5246 22.0546 13.7906C22.1789 11.6836 21.6031 10.8105 21.6031 10.8105C21.6031 10.8105 23.2648 12.402 23.1601 14.1776C23.0977 15.2351 22.1823 16.3534 21.4521 17.0851C21.8069 17.1554 22.2825 17.2411 22.9362 17.3559C22.9501 17.4201 22.8044 17.4172 22.515 17.4113C22.1954 17.4047 21.7005 17.3946 21.0517 17.4675C20.7534 17.7393 20.5457 17.9004 20.5457 17.9004C20.5457 17.9004 20.5129 17.8609 20.4621 17.8064C20.4114 17.8609 20.3785 17.9004 20.3785 17.9004C20.3785 17.9004 20.1709 17.7393 19.8725 17.4675C19.2237 17.3946 18.7289 17.4047 18.4093 17.4113C18.1198 17.4172 17.9741 17.4201 17.9881 17.3559C18.6418 17.2411 19.1174 17.1554 19.4722 17.0851C18.7419 16.3534 17.8265 15.2351 17.7642 14.1776Z" clip-rule="evenodd"/></g></g></g></g></g></g></g><defs><filter id="filter0_dd_91_27354" width="42" height="30" x="0" y="0" color-interpolation-filters="sRGB" filterUnits="userSpaceOnUse"><feFlood flood-opacity="0" result="BackgroundImageFix"/><feColorMatrix in="SourceAlpha" result="hardAlpha" values="0 0 0 0 0 0 0 0 0 0 0 0 0 0 0 0 0 0 127 0"/><feOffset dy="1"/><feGaussianBlur stdDeviation="1"/><feColorMatrix values="0 0 0 0 0.0627451 0 0 0 0 0.0941176 0 0 0 0 0.156863 0 0 0 0.06 0"/><feBlend in2="BackgroundImageFix" result="effect1_dropShadow_91_27354"/><feColorMatrix in="SourceAlpha" result="hardAlpha" values="0 0 0 0 0 0 0 0 0 0 0 0 0 0 0 0 0 0 127 0"/><feOffset dy="1"/><feGaussianBlur stdDeviation="1.5"/><feColorMatrix values="0 0 0 0 0.0627451 0 0 0 0 0.0941176 0 0 0 0 0.156863 0 0 0 0.1 0"/><feBlend in2="effect1_dropShadow_91_27354" result="effect2_dropShadow_91_27354"/><feBlend in="SourceGraphic" in2="effect2_dropShadow_91_27354" result="shape"/></filter><clipPath id="clip0_91_27354"><rect width="36" height="24" x="3" y="2" fill="white" rx="2"/></clipPath></defs></svg>

<svg xmlns="http://www.w3.org/2000/svg" fill="none" aria-hidden="true" viewBox="0 0 42 30"><g filter="url(#a)"><g clip-path="url(#b)"><mask id="c" width="36" height="24" x="3" y="2" maskUnits="userSpaceOnUse" style="mask-type:alpha"><path fill="#fff" d="M3 2h36v24H3z"/></mask><g mask="url(#c)"><path fill="#F7FCFF" fill-rule="evenodd" d="M3 2v24h36V2H3Z" clip-rule="evenodd"/><mask id="d" width="36" height="24" x="3" y="2" maskUnits="userSpaceOnUse" style="mask-type:alpha"><path fill="#fff" fill-rule="evenodd" d="M3 2v24h36V2H3Z" clip-rule="evenodd"/></mask><g fill-rule="evenodd" clip-rule="evenodd" mask="url(#d)"><path fill="#5EAA22" d="M3 2v8h36V2H3Z"/><path fill="#E31D1C" d="M3 18v8h36v-8H3Z"/><path fill="#F7FCFF" d="M8.176 18.392v.634H5.554v-.634h2.622Zm-4.54 1.592h-.232v-.253h.511v.887h.652v.007H5.2v-1.842h-.404v1.208h-.062v-1.304H4.33v1.297h-.01v-1.297h-.404v.41H3v1.521h.636v-.634Zm1.689.356h.403v-.629h.45v.914h1.266v-1.547h-.649v.634h.246v.279h-.459v-.914H5.325v1.263Zm2.578-.356h.233v.634H7.5v-1.52h.915v-.41h.403v1.295h.01v-1.297h.405v1.304h.062v-1.208h.403v1.842h-.631v-.007h-.652v-.887h-.512v.253Zm4.772-1.592v.634h-2.622v-.634h2.622Zm-2.85 1.948h.403v-.629h.45v.914h1.266v-1.547h-.649v.634h.246v.279h-.46v-.914H9.826v1.263Zm2.658-.356h.233v.634h-.636v-1.52h.915v-.41h.404v1.295h.01v-1.297h.404v1.304h.062v-1.208h.403v1.842h-.631v-.007h-.652v-.887h-.512v.253Zm4.773-1.592v.634h-2.623v-.634h2.623Zm-2.851 1.948h.403v-.629h.45v.914h1.266v-1.547h-.649v.634h.246v.279h-.46v-.914h-1.256v1.263Zm2.578-.356h.233v.634h-.636v-1.52h.915v-.41h.403v1.295h.01v-1.297h.404v1.304h.063v-1.208h.403v1.842h-.631v-.007h-.652v-.887h-.512v.253Zm4.772-1.592v.634h-2.622v-.634h2.622Zm-2.85 1.948h.403v-.629h.45v.914h1.266v-1.547h-.65v.634h.246v.279h-.459v-.914h-1.257v1.263Zm2.578-.356h.233v.634h-.637v-1.52h.915v-.41h.404v1.295h.01v-1.297h.404v1.304h.062v-1.208h.404v1.842h-.632v-.007h-.652v-.887h-.511v.253Zm4.772-1.592v.634h-2.622v-.634h2.622Zm-2.85 1.948h.403v-.629h.45v.914h1.266v-1.547h-.65v.634h.246v.279h-.459v-.914h-1.257v1.263Zm2.658-.356h.233v.634h-.637v-1.52h.915v-.41h.404v1.295h.01v-1.297h.404v1.304h.062v-1.208h.404v1.842h-.632v-.007h-.652v-.887h-.511v.253Zm4.772-1.592v.634h-2.622v-.634h2.622Zm-2.85 1.948h.403v-.629h.45v.914h1.266v-1.547h-.65v.634h.246v.279h-.459v-.914h-1.257v1.263Zm2.658-.356h.233v.634h-.636v-1.52h.915v-.41h.403v1.295h.01v-1.297h.404v1.304h.063v-1.208h.403v1.842h-.632v-.007h-.651v-.887h-.512v.253Zm4.772-1.592v.634h-2.622v-.634h2.622Zm-2.85 1.948h.403v-.629h.45v.914h1.266v-1.547h-.65v.634h.246v.279h-.459v-.914h-1.257v1.263Zm2.658-.356h.233v.634h-.636v-1.52h.915v-.41h.403v1.295h.01v-1.297h.404v1.304h.063v-1.208h.403v1.842h-.632v-.007h-.651v-.887h-.512v.253Zm4.772-1.592v.634h-2.622v-.634h2.622Zm-2.85 1.948h.403v-.629h.45v.914h1.266v-1.547h-.65v.634h.247v.279h-.46v-.914h-1.257v1.263Zm2.578-.356h.233v.634h-.637v-1.52h.915v-.41h.404v1.295h.01v-1.297h.404v1.304h.062v-1.208h.404v1.842h-.632v-.007h-.652v-.887h-.511v.253Zm4.772-1.592v.634h-2.622v-.634h2.622Zm-2.85 1.948h.403v-.629h.45v.914h1.266v-1.547h-.65v.634h.246v.279h-.459v-.914h-1.257v1.263Zm2.819-.356h.232v.634h-.636v-1.52h.915v-.41h.404v1.295h.01v-1.297h.404v1.304h.062v-1.208h.404v1.842h-.632v-.007h-.652v-.887h-.511v.253Zm4.772-1.592v.634h-2.622v-.634h2.622Zm-2.851 1.948h.403v-.629h.45v.914h1.267v-1.547h-.65v.634h.246v.279h-.459v-.914h-1.257v1.263ZM3.545 7.392v.634H.923v-.634h2.622ZM-.994 8.984h-.233v-.253h.512v.887h.652v.007h.631V7.783H.165v1.208H.102V7.687H-.3v1.297h-.01V7.687h-.404v.41h-.915v1.521h.636v-.634Zm1.688.356h.404v-.63h.45v.914h1.266V8.078h-.65v.634h.247v.279h-.46v-.914H.695V9.34Zm2.579-.356h.233v.634h-.637v-1.52h.915v-.41h.404v1.295h.01V7.687h.404v1.304h.062V7.783h.404v1.842h-.632v-.007h-.652v-.887h-.511v.253Zm4.772-1.592v.634H5.423v-.634h2.622ZM5.195 9.34h.403v-.63h.45v.914h1.266V8.078h-.65v.634h.246v.279h-.459v-.914H5.194V9.34Zm2.658-.356h.233v.634h-.637v-1.52h.916v-.41h.403v1.295h.01V7.687h.404v1.304h.063V7.783h.403v1.842h-.632v-.007h-.651v-.887h-.512v.253Zm4.772-1.592v.634h-2.622v-.634h2.622ZM9.775 9.34h.403v-.63h.45v.914h1.266V8.078h-.65v.634h.246v.279h-.459v-.914H9.774V9.34Zm2.578-.356h.233v.634h-.637v-1.52h.915v-.41h.404v1.295h.01V7.687h.404v1.304h.062V7.783h.404v1.842h-.632v-.007h-.652v-.887h-.511v.253Zm4.772-1.592v.634h-2.622v-.634h2.622ZM14.274 9.34h.404v-.63h.45v.914h1.266V8.078h-.65v.634h.246v.279h-.459v-.914h-1.257V9.34Zm2.579-.356h.232v.634h-.636v-1.52h.915v-.41h.404v1.295h.01V7.687h.404v1.304h.062V7.783h.404v1.842h-.632v-.007h-.652v-.887h-.512v.253Zm4.772-1.592v.634h-2.622v-.634h2.622ZM18.774 9.34h.403v-.63h.45v.914h1.266V8.078h-.649v.634h.246v.279h-.46v-.914h-1.256V9.34Zm2.659-.356h.232v.634h-.636v-1.52h.915v-.41h.404v1.295h.01V7.687h.404v1.304h.062V7.783h.404v1.842h-.632v-.007h-.652v-.887h-.511v.253Zm4.772-1.592v.634h-2.622v-.634h2.622ZM23.354 9.34h.403v-.63h.45v.914h1.266V8.078h-.649v.634h.246v.279h-.46v-.914h-1.256V9.34Zm2.659-.356h.233v.634h-.637v-1.52h.915v-.41h.404v1.295h.01V7.687h.404v1.304h.062V7.783h.404v1.842h-.632v-.007h-.652v-.887h-.511v.253Zm4.772-1.592v.634h-2.622v-.634h2.622ZM27.934 9.34h.404v-.63h.45v.914h1.266V8.078h-.65v.634h.246v.279h-.459v-.914h-1.257V9.34Zm2.659-.356h.233v.634h-.637v-1.52h.915v-.41h.404v1.295h.01V7.687h.404v1.304h.062V7.783h.404v1.842h-.632v-.007h-.652v-.887h-.511v.253Zm4.772-1.592v.634h-2.622v-.634h2.622Zm-2.85 1.948h.403v-.63h.45v.914h1.266V8.078h-.65v.634h.246v.279h-.459v-.914h-1.257V9.34Zm2.578-.356h.232v.634h-.636v-1.52h.915v-.41h.404v1.295h.01V7.687h.404v1.304h.062V7.783h.404v1.842h-.632v-.007h-.652v-.887h-.511v.253Zm4.772-1.592v.634h-2.622v-.634h2.622ZM37.014 9.34h.403v-.63h.45v.914h1.266V8.078h-.649v.634h.246v.279h-.46v-.914h-1.256V9.34Zm2.82-.356h.232v.634h-.636v-1.52h.915v-.41h.403v1.295h.01V7.687h.404v1.304h.063V7.783h.403v1.842h-.631v-.007h-.652v-.887h-.512v.253Zm4.771-1.592v.634h-2.622v-.634h2.622Zm-2.85 1.948h.403v-.63h.45v.914h1.266V8.078h-.65v.634h.247v.279h-.46v-.914h-1.257V9.34Z"/><path fill="#E31D1C" d="M19.432 10.25s.481.225.973.225.987-.225.987-.225v.3s-.54.225-1.019.225c-.479 0-.94-.225-.94-.225v-.3Zm5.724 3.443c0-1.778-2.745-2.843-2.745-2.843S24 11.606 24 13.716c0 2.11-.824 3.024-.824 3.024s1.981-1.27 1.981-3.047Zm-9.267.098c0-1.778 2.747-2.941 2.747-2.941s-1.588.756-1.588 2.866c0 2.11.824 3.024.824 3.024s-1.983-1.171-1.983-2.95Zm1.875.387c-.104-1.776 1.557-3.368 1.557-3.368s-.605.732-.48 2.839c.042.723.363 1.8.767 2.434v-5.158h1.687v5.203c.405-.593.716-1.603.76-2.337.124-2.107-.452-2.98-.452-2.98s1.662 1.591 1.557 3.367c-.062 1.057-.978 2.175-1.708 2.907.355.07.83.156 1.484.27.014.065-.132.062-.421.056-.32-.006-.814-.016-1.463.056a9.307 9.307 0 0 1-.506.433s-.033-.04-.084-.094l-.084.094s-.207-.16-.506-.432a10.402 10.402 0 0 0-1.463-.057c-.29.006-.435.01-.42-.055.653-.115 1.128-.2 1.483-.27-.73-.733-1.646-1.85-1.708-2.908Z"/></g></g></g></g><defs><clipPath id="b"><rect width="36" height="24" x="3" y="2" fill="#fff" rx="2"/></clipPath><filter id="a" width="42" height="30" x="0" y="0" color-interpolation-filters="sRGB" filterUnits="userSpaceOnUse"><feFlood flood-opacity="0" result="BackgroundImageFix"/><feColorMatrix in="SourceAlpha" result="hardAlpha" values="0 0 0 0 0 0 0 0 0 0 0 0 0 0 0 0 0 0 127 0"/><feOffset dy="1"/><feGaussianBlur stdDeviation="1"/><feColorMatrix values="0 0 0 0 0.0627451 0 0 0 0 0.0941176 0 0 0 0 0.156863 0 0 0 0.06 0"/><feBlend in2="BackgroundImageFix" result="effect1_dropShadow_91_27354"/><feColorMatrix in="SourceAlpha" result="hardAlpha" values="0 0 0 0 0 0 0 0 0 0 0 0 0 0 0 0 0 0 127 0"/><feOffset dy="1"/><feGaussianBlur stdDeviation="1.5"/><feColorMatrix values="0 0 0 0 0.0627451 0 0 0 0 0.0941176 0 0 0 0 0.156863 0 0 0 0.1 0"/><feBlend in2="effect1_dropShadow_91_27354" result="effect2_dropShadow_91_27354"/><feBlend in="SourceGraphic" in2="effect2_dropShadow_91_27354" result="shape"/></filter></defs></svg>
